X:687
T:Reel 687
M:4/4
K:Gmaj
L:1/8
Bc|d2BG AGEF|G2Bd efge|d2BG AGED|GBAG FGEF|d2BG AGEG|DGBd c2Bc|d2 (3def gedc|BcAB G2| (3def |g2ge dged|Bdgd Bdgd|e2de agea|agab agef|g2gf eded|Bdgd BGdB|cdef gedc|BGAF G2|
